X:1
T:Nymphs and Shepherds Come Away
T:Nymphs and Shepherds Come Away
T:Henry Purcell
C:Henry Purcell
L:1/8
M:4/4
K:G
V:1 treble 
V:1
"^Not too quick" G3 A (BA) G2 | (Bc d2) d4 | D2 G2 G4 | G3 A (BA G2) | (cd e2) e4 | A2 d2 d2 D2 | %6
 (GA B2) (cB)(AG) | G6 z2!fine! :| !fermata!g2 d2 e2 B2 | c4 d2 B2 | G4 c2 A2 | F4 B2 G2 | %12
 (E2 FG) (AB)(AG) | (FGFE) D4 | A2 A2 B2 G2 | d4 z2 A2 | B2 G2 B2 !fermata!g2 | B6 A2 | %18
 G4 !fermata!d2{cBAE} F2!D.C.! || %19

